icons/AntDesign-Light.svg

<?xml version="1.0" encoding="UTF-8" standalone="no"?>
<svg
   width="256"
   height="256"
   title="Ant Design"
   viewBox="0 0 256 256"
   fill="none"
   id="antdesign"
   version="1.1"
   sodipodi:docname="AntDesign-Light.svg"
   inkscape:version="1.4.2 (ebf0e940, 2025-05-08)"
   xmlns:inkscape="http://www.inkscape.org/namespaces/inkscape"
   xmlns:sodipodi="http://sodipodi.sourceforge.net/DTD/sodipodi-0.dtd"
   xmlns="http://www.w3.org/2000/svg"
   xmlns:svg="http://www.w3.org/2000/svg">
  <defs
     id="defs11" />
  <sodipodi:namedview
     id="namedview11"
     pagecolor="#ffffff"
     bordercolor="#000000"
     borderopacity="0.25"
     inkscape:showpageshadow="2"
     inkscape:pageopacity="0.0"
     inkscape:pagecheckerboard="0"
     inkscape:deskcolor="#d1d1d1"
     inkscape:zoom="1.1568161"
     inkscape:cx="111.94519"
     inkscape:cy="204.87267"
     inkscape:window-width="1512"
     inkscape:window-height="949"
     inkscape:window-x="0"
     inkscape:window-y="33"
     inkscape:window-maximized="0"
     inkscape:current-layer="antdesign" />
  <style
     id="style1">
#antdesign {
    rect {fill: #15191C}

    @media (prefers-color-scheme: light) {
        rect {fill: #F4F2ED}
    }
}
</style>
  <rect
     width="256"
     height="256"
     rx="40"
     fill="#15191C"
     id="rect1"
     style="fill:#f4f2ed;fill-opacity:1" />
  <path
     d="M133.604 53.1137L163.64 83.1494C166.46 85.9694 166.46 90.5399 163.64 93.3584C160.82 96.1784 156.249 96.1784 153.431 93.3584L133.604 73.5332C130.784 70.7131 126.214 70.7131 123.396 73.5332L73.5341 123.396C70.7141 126.216 70.7141 130.786 73.5341 133.605L123.396 183.467C126.216 186.287 130.786 186.287 133.604 183.467L153.431 163.64C156.251 160.82 160.821 160.82 163.64 163.64C166.46 166.46 166.46 171.031 163.64 173.849L133.604 203.885C130.784 206.705 126.214 206.705 123.396 203.885L53.115 133.605C50.295 130.785 50.295 126.214 53.115 123.396L123.394 53.1152C126.214 50.2952 130.786 50.2952 133.604 53.1137Z"
     fill="url(#linearGradient1)"
     id="path1" />
  <path
     d="M173.85 103.569C176.67 100.749 181.24 100.749 184.059 103.569L203.885 123.396C206.705 126.216 206.705 130.786 203.885 133.605L184.059 153.431C181.239 156.251 176.668 156.251 173.85 153.431C171.03 150.611 171.03 146.041 173.85 143.222L183.466 133.606C186.286 130.786 186.286 126.216 183.466 123.397L173.85 113.781C171.03 110.959 171.03 106.389 173.85 103.569Z"
     fill="url(#linearGradient2)"
     id="path2" />
  <path
     d="M128.5 151.365C141.127 151.365 151.364 141.128 151.364 128.5C151.364 115.872 141.127 105.636 128.5 105.636C115.873 105.636 105.636 115.872 105.636 128.5C105.636 141.128 115.873 151.365 128.5 151.365ZM128.5 140.384C121.937 140.384 116.617 135.063 116.617 128.5C116.617 121.937 121.937 116.616 128.5 116.616C135.063 116.616 140.383 121.937 140.383 128.5C140.383 135.063 135.063 140.384 128.5 140.384Z"
     fill="url(#linearGradient3)"
     id="path3" />
  <linearGradient
     id="linearGradient1"
     x1="239.9"
     y1="128.5"
     x2="38.39"
     y2="128.5"
     gradientUnits="userSpaceOnUse">
    <stop
       stop-color="#47B4E0"
       id="stop3" />
    <stop
       offset="0.1718"
       stop-color="#1588E0"
       id="stop4" />
    <stop
       offset="1"
       stop-color="#6EB4E0"
       id="stop5" />
  </linearGradient>
  <linearGradient
     id="linearGradient2"
     x1="128.497"
     y1="205.997"
     x2="128.497"
     y2="51.0024"
     gradientUnits="userSpaceOnUse">
    <stop
       offset="0.0322"
       stop-color="#F0776F"
       id="stop6" />
    <stop
       offset="0.5032"
       stop-color="#F0656F"
       id="stop7" />
    <stop
       offset="1"
       stop-color="#F0606F"
       id="stop8" />
  </linearGradient>
  <linearGradient
     id="linearGradient3"
     x1="128.5"
     y1="105.636"
     x2="128.5"
     y2="151.364"
     gradientUnits="userSpaceOnUse">
    <stop
       offset="0.0322"
       stop-color="#F0776F"
       id="stop9" />
    <stop
       offset="0.5032"
       stop-color="#F0656F"
       id="stop10" />
    <stop
       offset="1"
       stop-color="#F0606F"
       id="stop11" />
  </linearGradient>
</svg>

<?xml version="1.0" encoding="UTF-8"?>
<svg id="antdesign" width="256" height="256" fill="none" title="Ant Design" version="1.1" viewBox="0 0 256 256" xmlns="http://www.w3.org/2000/svg">
 <style>#antdesign {
    rect {fill: #15191C}

    @media (prefers-color-scheme: light) {
        rect {fill: #F4F2ED}
    }
}</style>
 <rect width="256" height="256" rx="40" fill="#f4f2ed"/>
 <path d="m133.6 53.114 30.036 30.036c2.82 2.82 2.82 7.3905 0 10.209-2.82 2.82-7.391 2.82-10.209 0l-19.827-19.825c-2.82-2.8201-7.39-2.8201-10.208 0l-49.862 49.863c-2.82 2.82-2.82 7.39 0 10.209l49.862 49.862c2.82 2.82 7.39 2.82 10.208 0l19.827-19.827c2.82-2.82 7.39-2.82 10.209 0 2.82 2.82 2.82 7.391 0 10.209l-30.036 30.036c-2.82 2.82-7.39 2.82-10.208 0l-70.281-70.28c-2.82-2.82-2.82-7.391 0-10.209l70.279-70.281c2.82-2.82 7.392-2.82 10.21-0.0015z" fill="url(#linearGradient1)"/>
 <path d="m173.85 103.57c2.82-2.82 7.39-2.82 10.209 0l19.826 19.827c2.82 2.82 2.82 7.39 0 10.209l-19.826 19.826c-2.82 2.82-7.391 2.82-10.209 0-2.82-2.82-2.82-7.39 0-10.209l9.616-9.616c2.82-2.82 2.82-7.39 0-10.209l-9.616-9.616c-2.82-2.822-2.82-7.392 0-10.212z" fill="url(#linearGradient2)"/>
 <path d="m128.5 151.36c12.627 0 22.864-10.237 22.864-22.865s-10.237-22.864-22.864-22.864-22.864 10.236-22.864 22.864 10.237 22.865 22.864 22.865zm0-10.981c-6.563 0-11.883-5.321-11.883-11.884s5.32-11.884 11.883-11.884 11.883 5.321 11.883 11.884-5.32 11.884-11.883 11.884z" fill="url(#linearGradient3)"/>
 <linearGradient id="linearGradient1" x1="239.9" x2="38.39" y1="128.5" y2="128.5" gradientUnits="userSpaceOnUse">
  <stop stop-color="#47B4E0" offset="0"/>
  <stop stop-color="#1588E0" offset=".1718"/>
  <stop stop-color="#6EB4E0" offset="1"/>
 </linearGradient>
 <linearGradient id="linearGradient2" x1="128.5" x2="128.5" y1="206" y2="51.002" gradientUnits="userSpaceOnUse">
  <stop stop-color="#F0776F" offset=".0322"/>
  <stop stop-color="#F0656F" offset=".5032"/>
  <stop stop-color="#F0606F" offset="1"/>
 </linearGradient>
 <linearGradient id="linearGradient3" x1="128.5" x2="128.5" y1="105.64" y2="151.36" gradientUnits="userSpaceOnUse">
  <stop stop-color="#F0776F" offset=".0322"/>
  <stop stop-color="#F0656F" offset=".5032"/>
  <stop stop-color="#F0606F" offset="1"/>
 </linearGradient>
</svg>
